X: 12521
T: Farewell To Ireland
R: reel
M: 4/4
K: Adorian
e|A2A>B A2A>B|g>e d>B G>G G>g|e>d (3efg a2a>g|(3efg d>B A2A:|
B|:a2a2a2a>e|g>a (3gfe d>B G<g|e>d (3efg a2a>g|(3efg d>B A2A>B:|
|:e>A A2e>d (3efg|B<G G/G/G B<A (3Bcd|e>A A2e>d (3efg|a>e g>B A2A>B:|
a2 (3efg a2a>e|g2 (3Bcd g<a f3>d|a2 (3efg a2a>e|g>e d>B A2A>e|
a2 (3efg a2a>e|g2 (3Bcd g<a f>d|a2 (3efg (3fga e>f|g>e d>B A2A||

